!!!SOCIAL_FUNCTION:	songs connected with the treatment of the sick
!!!PDT:	1932
!!!OTL: No_64_Song_During_Treatment_of_the_Sick_(b).krn
!!!REG: Wisconsin
!!!LANG: Non-Tone
!!!LING_GROUP: Algonquin
**kern
*staff1
=1-
*clefF4
*k[b-e-]
*M2/4
4r
8r
16c\LL
16c\JJ
=2
8.c\L
16B-\Jk
4B-\
=3
8.B-\L
16B-\Jk
8.B-\L
16B-\Jk
=4
(8.B-\L
16G\Jk)
16G\
16r
16B-\LL
16B-\JJ
=5
4B-\
8.G\L
16F\Jk
=6
8.F\L
16G\Jk
8.F\L
16F\Jk
=7||
*M3/4
4F\
[4F\
8.F\L]
16F\Jk
=8||
*M2/4
8F\
8r
8r
16B-\LL
16B-\JJ
=9
(8.B-\L
16F\Jk)
8.F\L
16G\Jk
=10
8.F\L
16G\Jk
8.F\L
16F\Jk
=11
(8.F\L
16D\Jk)
16D\
16r
16F\LL
16F\JJ
=12
(8.F\L
16D\Jk)
8.D/L
16BB-/Jk
=13
8.BB-/L
16BB-/Jk
8.BB-/L
16BB-/Jk
=14
4BB-/
[4BB-/
=15
2BB-/]
==
*-
